X: 30953
T: Owlet's
R: reel
M: 4/4
K: Bminor
B2dB gfd(c|c)Ac/d/e dcAF|B2dB gfd(e|e)baf ecBA|
ABdB gfd(c|c)Ac/d/e dcAF|GBG FBF (E2|E)GFD EFAc:|
d2fd ceA(B|B)gfd egc/B/A|d2fd cAF(G|G)E/F/GB cFAc|
d2fd ceA(B|B)bba fcdB|FGBG FBF (E|E)GFD EFAc:|

